X: 322
T: Zhuan Shantou
%%abc-version 2.0
%%abcx-abcm2ps-target-version 5.9.1 (29 Sep 2008)
%%abc-creator hum2abc beta
%%abcx-conversion-date 2013/10/02 07:52:30
%%abc-edited-by Helmut Schaffrath
%%humdrum-veritas 2825480550
%%humdrum-veritas-data 3324602289
%%continueall 1
%%barnumbers 0
L: 1/8
M: 2/4
K: A
c f e c [I:setbarnb 1]| 
e cB2 | 
c/ e/ G F A | 
B4 | 
c f e c | 
c/ e/G3 | 
F B/ B/ G F | 
E4 | 
F E/ G/ F E | 
F2c3/ B/ | 
A F E C | 
B,4 | 
c> f e3/ c/ | 
e c B B/ c/ | 
E C E F | 
c4 | 
A F/ F/ E C | 
B4 |]  



